static/assets/img/icons/theme/files/folder-cloud.svg

<svg height="24" viewBox="0 0 24 24" width="24" xmlns="http://www.w3.org/2000/svg"><g fill="none" fill-rule="evenodd"><path d="m0 0h24v24h-24z" opacity="0"/><g fill="#000"><path d="m3.5 21h17c.8284271 0 1.5-.6715729 1.5-1.5v-11c0-.82842712-.6715729-1.5-1.5-1.5h-10.5l-2.56066017-2.56066017c-.28130457-.28130457-.66283544-.43933983-1.06066017-.43933983h-2.87867966c-.82842712 0-1.5.67157288-1.5 1.5v14c0 .8284271.67157288 1.5 1.5 1.5z" opacity=".3"/><path d="m8.63657261 16.4632487c-.98328307-.619635-1.63657261-1.7151499-1.63657261-2.9632487 0-1.9329966 1.56700338-3.5 3.5-3.5 1.763236 0 3.2219407 1.3038529 3.4645556 3h1.0354444c1.1045695 0 2 .8954305 2 2s-.8954305 2-2 2h-5c-.52689348 0-1.00619927-.2037471-1.36342739-.5367513z"/></g></g></svg>

<svg width="24px" height="24px" viewBox="0 0 24 24" version="1.1" xmlns="http://www.w3.org/2000/svg" xmlns:xlink="http://www.w3.org/1999/xlink">
    <title>Icon For Folder-cloud</title>
    <g stroke="none" stroke-width="1" fill="none" fill-rule="evenodd">
        <rect opacity="0" x="0" y="0" width="24" height="24"></rect>
        <path d="M3.5,21 L20.5,21 C21.3284271,21 22,20.3284271 22,19.5 L22,8.5 C22,7.67157288 21.3284271,7 20.5,7 L10,7 L7.43933983,4.43933983 C7.15803526,4.15803526 6.77650439,4 6.37867966,4 L3.5,4 C2.67157288,4 2,4.67157288 2,5.5 L2,19.5 C2,20.3284271 2.67157288,21 3.5,21 Z" fill="#000000" opacity="0.3"></path>
        <path d="M8.63657261,16.4632487 C7.65328954,15.8436137 7,14.7480988 7,13.5 C7,11.5670034 8.56700338,10 10.5,10 C12.263236,10 13.7219407,11.3038529 13.9645556,13 L15,13 C16.1045695,13 17,13.8954305 17,15 C17,16.1045695 16.1045695,17 15,17 L10,17 C9.47310652,17 8.99380073,16.7962529 8.63657261,16.4632487 Z" fill="#000000"></path>
    </g>
</svg>
